synths/iBNB.svg

<svg width="480" height="480" viewBox="0 0 480 480" fill="none" xmlns="http://www.w3.org/2000/svg"><mask id="mask0-118369" maskUnits="userSpaceOnUse" x="0" y="0" width="480" height="480"><circle cx="240" cy="240" r="240" fill="url(#paint0_linear-370334)"/></mask><g mask="url(#mask0-118369)"><circle cx="240" cy="240" r="240" fill="#FF1E39"/><circle cx="240" cy="240" r="208" fill="#fff"/></g><circle cx="240" cy="240" r="184" fill="#0E052F"/><path d="M240 424c101.62 0 184-82.38 184-184S341.62 56 240 56 56 138.38 56 240s82.38 184 184 184z" fill="#F3BA2F"/><path d="M195.334 221.646L240 176.98l44.689 44.689 25.99-25.99L240 125l-70.656 70.656 25.99 25.99zM125 240l25.99-25.99L176.98 240l-25.99 25.99L125 240zm70.334 18.354L240 303.02l44.689-44.689 25.99 25.979L240 355l-70.656-70.656-.035-.034 26.025-25.956zM303.02 240l25.99-25.99L355 240l-25.99 25.99L303.02 240zm-36.662-.023h.023V240L240 266.381l-26.347-26.335-.046-.046.046-.035 4.612-4.622 2.243-2.243L240 213.619l26.369 26.369-.011-.011z" fill="#fff"/><defs><linearGradient id="paint0_linear-370334" x1="240" y1="0" x2="240" y2="701.818" gradientUnits="userSpaceOnUse"><stop stop-color="#08021E"/><stop offset="1" stop-color="#1F0777"/></linearGradient></defs></svg>

<svg width="480" height="480" viewBox="0 0 480 480" fill="none" xmlns="http://www.w3.org/2000/svg">
<mask id="mask0-118369" mask-type="alpha" maskUnits="userSpaceOnUse" x="0" y="0" width="480" height="480">
<circle cx="240" cy="240" r="240" fill="url(#paint0_linear-370334)"/>
</mask>
<g mask="url(#mask0-118369)">
<circle cx="240" cy="240" r="240" fill="#FF1E39"/>
<circle cx="240" cy="240" r="208" fill="white"/>
</g>
<circle cx="240" cy="240" r="184" fill="#0E052F"/>
<path d="M240 424C341.62 424 424 341.62 424 240C424 138.38 341.62 56 240 56C138.38 56 56 138.38 56 240C56 341.62 138.38 424 240 424Z" fill="#F3BA2F"/>
<path d="M195.334 221.646L240 176.98L284.689 221.669L310.679 195.679L240 125L169.344 195.656L195.334 221.646ZM125 240L150.99 214.01L176.98 240L150.99 265.99L125 240ZM195.334 258.354L240 303.02L284.689 258.331L310.679 284.31L240 355L169.344 284.344L169.309 284.31L195.334 258.354ZM303.02 240L329.01 214.01L355 240L329.01 265.99L303.02 240ZM266.358 239.977H266.381V240L240 266.381L213.653 240.046L213.607 240L213.653 239.965L218.265 235.343L220.508 233.1L240 213.619L266.369 239.988L266.358 239.977Z" fill="white"/>
<defs>
<linearGradient id="paint0_linear-370334" x1="240" y1="0" x2="240" y2="701.818" gradientUnits="userSpaceOnUse">
<stop stop-color="#08021E"/>
<stop offset="1" stop-color="#1F0777"/>
</linearGradient>
</defs>
</svg>
